X:1
T:Title
%%score { ( 1 3 ) | ( 2 4 ) }
L:1/8
Q:1/4=100
M:4/4
K:F
V:1 treble nm="Grand Piano"
V:3 treble 
V:2 bass 
V:4 bass 
V:1
 A2 FG A2 [DFB]2 | [CFA]2 [CEG]2 [CEG]4 | [B,EG]2 [G,CE][A,CF] [B,EG]2 [CEA]2 | [CF]4 z4 | %4
w: C.~S.~Kauffman * * * *||||
 [CFA]2 [A,CF][B,CG] [CFA]2 [_EFc]2 | [DFc]2 [DFB]2 [DFB]4 | [CFA]2 [G,CE][A,CF] [B,EG]2 [CEA]2 | %7
w: |||
 F6 z2 | c2 AB c2 [Fd]2 | [Fc]2 [EB]2 [EB]4 | [GB]2 [EG][FA] [GB]2 [Ec]2 | A6 z2 | c2 AB c2 AF | %13
w: ||||||
 [DG]2 D2 D4 | C2 EF [EG]2 [EA]2 | F6 z2 |] %16
w: |||
V:2
 [F,CF]2 [F,A,C][F,B,C] [F,CF]2 B,,2 | C,2 C,2 C,4 | C,2 C,C, C,2 C,2 | z4 C2 z2 | %4
 F,2 F,F, F,2 A,,2 | B,,2 B,,2 B,,4 | C,2 C,C, C,2 C,2 | [F,A,]6 z2 | %8
 [F,A,F]2 [F,CF][F,G,F] [F,A,F]2 [B,,B,]2 | [C,A,]2 [C,G,]2 [C,G,]4 | %10
 [C,C]2 [C,C][C,C] [C,C]2 [C,C]2 | [F,CF]6 z2 | [F,A,F]2 [F,CF][F,G,F] [F,A,F]2 [F,CF][F,A,C] | %13
 [B,,B,]2 [B,,F,B,]2 [B,,F,B,]4 | [C,F,A,]2 [C,G,C][C,A,C] [C,B,]2 [C,C]2 | [F,A,]6 z2 |] %16
V:3
 x8 | x8 | x8 | A,6 z2 | x8 | x8 | x8 | x8 | x8 | x8 | x8 | x8 | x8 | x8 | x8 | x8 |] %16
V:4
 x8 | x8 | x8 | F,6 z2 | x8 | x8 | x8 | x8 | x8 | x8 | x8 | x8 | x8 | x8 | x8 | x8 |] %16

